packages/core/src/svgs/fara.svg

<svg width="24" height="24" viewBox="0 0 24 24" fill="none" xmlns="http://www.w3.org/2000/svg">
<g clip-path="url(#clip0_31_10189)">
<path d="M0 0H24V24H0V0Z" fill="url(#paint0_linear_31_10189)"/>
<path d="M12.4286 13.5429V9.69434L12.8443 9.79719L13.3972 10.8386H16.1657L16.0114 11.7558C15.7062 11.5913 15.3678 11.4976 15.0214 11.4815C14.6186 11.4815 14.2629 11.7429 14.1343 11.8758V13.1272L13.86 13.3458L12.72 13.7143L12.4286 13.5429Z" fill="url(#paint1_linear_31_10189)"/>
<path d="M12.8014 9.88263L12.4286 9.68548L12.57 9.54834H13.9414L14.1257 9.79263V10.3198L14.9229 9.54834H16.0714L16.2857 9.87834V11.4212L16.0114 11.7512L15.8529 11.4212L15.57 10.8212L14.0014 10.5983L12.8014 9.87834V9.88263Z" fill="url(#paint2_linear_31_10189)"/>
<path d="M12.6771 13.1402V9.81021L13.02 9.7245H13.7528L13.9671 9.81021V10.4359H14.43L15.0857 9.72021H15.8571L16.0157 9.94307V11.2674L15.8528 11.4388C15.7757 11.3488 15.5057 11.1602 15.0386 11.1602C14.3657 11.1602 14.0486 11.5759 13.9671 11.7816V12.8702L13.0157 13.3074L12.6771 13.1359V13.1402Z" fill="#BCBBB9"/>
<path d="M7.3286 10.9458H5.10003C5.16003 11.3144 4.98432 11.4087 4.98432 11.5115C5.59289 12.4329 4.85575 13.2515 4.37146 13.9629C6.14146 15.2101 6.18003 16.9329 6.26575 17.1429C6.9086 16.3587 7.55146 14.4515 7.55146 13.6115C7.55146 12.9387 7.40146 11.5544 7.32432 10.9458H7.3286Z" fill="#C6C6C6"/>
<path d="M6.90005 16.0285L7.16576 14.3828C6.96862 14.0571 6.47147 13.2856 6.0729 13.2856C5.67433 13.2856 5.04433 13.7742 4.7829 13.9542H4.37147L4.36719 13.9628C4.86516 14.3074 5.28689 14.7509 5.60614 15.2655C5.92539 15.7801 6.13533 16.355 6.2229 16.9542C6.23243 17.0181 6.24676 17.0811 6.26576 17.1428C6.48862 16.8728 6.70719 16.4699 6.90433 16.0285H6.90005Z" fill="url(#paint3_linear_31_10189)"/>
<path d="M5.21996 10.9458C5.37425 11.2244 5.57139 11.7258 5.57139 12.3001C5.57139 13.0072 5.03996 13.7015 4.78282 13.9587H4.35425L4.51282 13.7315C4.83425 13.2815 5.12996 12.7801 5.14282 12.2487C5.15139 12.0087 5.14711 11.7601 4.98425 11.5115C4.98425 11.4772 5.00139 11.4472 5.02282 11.4087C5.06996 11.3229 5.14282 11.1987 5.09568 10.9458H5.22425H5.21996Z" fill="url(#paint4_linear_31_10189)"/>
<path d="M7.4272 11.8545L6.8572 12.9945C6.8572 13.9288 6.89577 16.0931 6.2572 17.1302L6.26577 17.1431C6.90863 16.3588 7.55149 14.4516 7.55149 13.6116C7.55149 13.1831 7.49149 12.4759 7.4272 11.8545Z" fill="url(#paint5_linear_31_10189)"/>
<path d="M6.22712 16.9842C6.26275 16.3992 6.14932 15.8148 5.89747 15.2856C5.64562 14.7564 5.26357 14.2998 4.78712 13.9585H4.34998C5.34631 14.6735 6.01954 15.7534 6.22283 16.9628V16.9842H6.22712Z" fill="url(#paint6_linear_31_10189)"/>
<path d="M6.06857 9.70295C5.34267 9.83701 4.59603 9.80773 3.88286 9.61724C3.73715 10.2987 4.22143 11.0487 4.48286 11.3401C4.55572 11.2158 4.74857 10.9672 4.93286 10.9672C5.11286 10.9672 5.31429 11.2158 5.39143 11.3401C5.45143 11.233 5.69143 11.023 6.18 11.023C6.66429 11.023 6.93 11.2115 7.00286 11.3058C7.11 11.1687 7.41429 10.8901 7.74857 10.8901C8.16429 10.8901 8.43 11.1987 8.57143 11.3401C8.47715 9.3901 7.31572 9.4801 6.06857 9.70295Z" fill="url(#paint7_linear_31_10189)"/>
<path d="M7.13141 6.85693C6.90856 6.85693 6.52284 7.17408 6.35999 7.32836L7.0757 8.0655C7.28999 7.93693 7.72713 7.63693 7.72713 7.42265C7.72713 7.15693 7.40998 6.85693 7.13141 6.85693Z" fill="#776E5F"/>
<path d="M7.2857 8.2285L6.36427 7.28564L5.73427 7.91993L5.86284 8.03993L5.73427 8.22422H5.57141V9.85707C5.81998 9.82707 6.42855 9.73707 6.87427 9.64279C6.82713 8.65707 7.13141 8.28422 7.2857 8.22422V8.2285Z" fill="#614108"/>
<path d="M6.85713 10.3884L6.1457 9.85693L5.57141 10.5512L6.2957 11.1426L6.85713 10.3884Z" fill="url(#paint8_linear_31_10189)"/>
<path d="M5.40856 11.3144C5.41713 11.0701 5.34856 10.7144 4.99713 10.7144C4.69713 10.7144 4.53427 11.0401 4.4657 11.3229L4.47856 11.3401C4.5557 11.2329 4.74856 11.0229 4.93284 11.0229C5.11284 11.0229 5.31427 11.2372 5.39141 11.3401C5.39666 11.3326 5.40239 11.3254 5.40856 11.3186V11.3144Z" fill="url(#paint9_linear_31_10189)"/>
<path d="M8.5286 11.3015C8.44288 11.0701 8.20717 10.7144 7.82145 10.7144C7.5086 10.7144 7.24288 10.9929 7.09717 11.2072C7.24288 11.0786 7.48288 10.9286 7.7486 10.9286C8.12574 10.9286 8.3786 11.1601 8.5286 11.2972V11.3015Z" fill="url(#paint10_linear_31_10189)"/>
<path d="M4.40145 11.2457L4.71431 10.6714L3.86145 9.99854C3.90431 10.4914 4.18716 10.9714 4.40145 11.2414V11.2457Z" fill="url(#paint11_linear_31_10189)"/>
<path d="M8.57141 10.8V9.80566L11.6486 9.94709L11.8971 12.0514L11.7857 13.5471C11.6571 13.5 11.1857 13.4014 10.3414 13.4014C9.50141 13.4014 8.98284 13.6114 8.82855 13.7142L8.57141 13.47V12.0514C8.61855 11.9357 8.82855 11.6742 9.30427 11.55C9.89998 11.3957 10.1743 11.2328 10.1743 11.0357C10.1743 10.8428 10.0671 10.6585 9.54855 10.6585C9.13284 10.6585 8.86284 10.8471 8.77713 10.9414L8.57141 10.8Z" fill="url(#paint12_linear_31_10189)"/>
<path d="M9.42855 9.42871C8.89713 9.42871 8.6357 9.67728 8.57141 9.80157L10.5128 10.3587L11.5971 12.8573L11.79 13.513L12 13.3287V10.3544C12 9.81443 11.4386 9.51014 11.16 9.42871H9.42855Z" fill="#EEEAE9"/>
<path d="M8.78137 9.85691V10.5383C8.86709 10.4783 9.14994 10.3626 9.59994 10.3626C10.1699 10.3626 10.4142 10.5341 10.4142 10.9841C10.4142 11.4298 10.1699 11.5112 9.59994 11.6183C9.14994 11.7041 8.93566 11.9398 8.88851 12.0469V13.1483C8.90994 13.1998 8.97423 13.3026 9.03423 13.3026C9.46709 13.0798 10.9885 13.1055 11.6957 13.1483V10.3155C11.6957 10.0926 11.2199 9.58691 10.1699 9.58691C9.32566 9.58691 8.8928 9.76263 8.78137 9.85263V9.85691Z" fill="#BCBBB9"/>
<path d="M16.7142 10.8V9.80566L19.7914 9.94709L20.0399 12.0514L19.9285 13.5471C19.7999 13.5 19.3285 13.4014 18.4842 13.4014C17.6442 13.4014 17.1257 13.6114 16.9714 13.7142L16.7142 13.47V12.0514C16.7614 11.9357 16.9714 11.6742 17.4471 11.55C18.0428 11.3957 18.3171 11.2328 18.3171 11.0357C18.3171 10.8428 18.2099 10.6585 17.6914 10.6585C17.2757 10.6585 17.0057 10.8471 16.9199 10.9414L16.7142 10.8Z" fill="url(#paint13_linear_31_10189)"/>
<path d="M17.5714 9.42871C17.0399 9.42871 16.7785 9.67728 16.7142 9.80157L18.6557 10.3587L19.7399 12.8573L19.9328 13.513L20.1428 13.3287V10.3544C20.1428 9.81443 19.5814 9.51014 19.3028 9.42871H17.5714Z" fill="#EEEAE9"/>
<path d="M16.9243 9.85691V10.5383C17.01 10.4783 17.2929 10.3626 17.7429 10.3626C18.3129 10.3626 18.5572 10.5341 18.5572 10.9841C18.5572 11.4298 18.3129 11.5112 17.7429 11.6183C17.2929 11.7041 17.0786 11.9398 17.0315 12.0469V13.1483C17.0529 13.1998 17.1172 13.3026 17.1772 13.3026C17.61 13.0798 19.1315 13.1055 19.8386 13.1483V10.3155C19.8386 10.0926 19.3629 9.58691 18.3129 9.58691C17.4686 9.58691 17.0357 9.76263 16.9243 9.85263V9.85691Z" fill="#BCBBB9"/>
<path d="M7.71423 15.0559L8.61852 14.1431H17.0957L17.9999 15.0559V16.0288L16.7871 17.1431H8.92709L7.71423 16.0288V15.0559Z" fill="url(#paint14_linear_31_10189)"/>
<path d="M7.88574 15.9469V15.1326L8.69146 14.3184H17.0229L17.8286 15.1326V15.9469L16.7229 16.9626H8.99146L7.88574 15.9469Z" fill="#2C1F18"/>
<path d="M9.42857 14.5713H9V16.7141H10.2857V16.2856H9.42857V14.5713Z" fill="url(#paint15_linear_31_10189)"/>
<path d="M11.3314 14.5713L10.7142 16.7141H11.1985L11.5714 15.4113L11.9442 16.7141H12.4285L11.8114 14.5713H11.3314Z" fill="url(#paint16_linear_31_10189)"/>
<path d="M13.2772 14.5713L14.5715 15.7541V14.5713H15V16.7141H14.6529L13.2857 15.4756V16.7141H12.8572V14.5713H13.2772Z" fill="url(#paint17_linear_31_10189)"/>
<path fill-rule="evenodd" clip-rule="evenodd" d="M16.0757 14.5713H15.4286V16.7141H16.0757C16.3599 16.7141 16.6324 16.6013 16.8333 16.4003C17.0343 16.1994 17.1472 15.9269 17.1472 15.6427C17.1472 15.3586 17.0343 15.086 16.8333 14.8851C16.6324 14.6842 16.3599 14.5713 16.0757 14.5713ZM16.0714 14.9999H15.8572V16.2856H16.0714C16.2419 16.2856 16.4055 16.2178 16.526 16.0973C16.6466 15.9767 16.7143 15.8132 16.7143 15.6427C16.7143 15.4722 16.6466 15.3087 16.526 15.1881C16.4055 15.0676 16.2419 14.9999 16.0714 14.9999Z" fill="url(#paint18_linear_31_10189)"/>
</g>
<defs>
<linearGradient id="paint0_linear_31_10189" x1="12" y1="0" x2="12" y2="24" gradientUnits="userSpaceOnUse">
<stop stop-color="#181422"/>
<stop offset="0.25" stop-color="#3C3E4D"/>
<stop offset="0.72" stop-color="#424147"/>
<stop offset="1" stop-color="#1A0C19"/>
</linearGradient>
<linearGradient id="paint1_linear_31_10189" x1="15.8829" y1="11.9958" x2="12.4586" y2="11.9958" gradientUnits="userSpaceOnUse">
<stop offset="0.42" stop-color="#AF764B"/>
<stop offset="0.56" stop-color="#F7F4EF"/>
<stop offset="0.64" stop-color="#AF7239"/>
<stop offset="0.89" stop-color="#896D57"/>
<stop offset="1" stop-color="#7A7975"/>
</linearGradient>
<linearGradient id="paint2_linear_31_10189" x1="16.2857" y1="10.6583" x2="12.4286" y2="10.6583" gradientUnits="userSpaceOnUse">
<stop offset="0.27" stop-color="#F3F3F3"/>
<stop offset="0.42" stop-color="#88857C"/>
<stop offset="0.67" stop-color="#CECAC7"/>
</linearGradient>
<linearGradient id="paint3_linear_31_10189" x1="5.76862" y1="13.4185" x2="5.76862" y2="17.1428" gradientUnits="userSpaceOnUse">
<stop stop-color="#BFBFBF"/>
<stop offset="1" stop-color="#B9B1AB"/>
</linearGradient>
<linearGradient id="paint4_linear_31_10189" x1="4.96282" y1="10.9458" x2="4.96282" y2="13.9587" gradientUnits="userSpaceOnUse">
<stop stop-color="#7C8280"/>
<stop offset="1" stop-color="#A4A5A7"/>
</linearGradient>
<linearGradient id="paint5_linear_31_10189" x1="6.90863" y1="11.8545" x2="6.90863" y2="17.1431" gradientUnits="userSpaceOnUse">
<stop stop-color="#E8E8ED"/>
<stop offset="1" stop-color="#F3F5EA"/>
</linearGradient>
<linearGradient id="paint6_linear_31_10189" x1="5.30569" y1="14.0228" x2="5.30569" y2="16.9842" gradientUnits="userSpaceOnUse">
<stop stop-color="#7F7366"/>
<stop offset="1" stop-color="#C2A963"/>
</linearGradient>
<linearGradient id="paint7_linear_31_10189" x1="6.09857" y1="9.59153" x2="6.21" y2="11.3401" gradientUnits="userSpaceOnUse">
<stop offset="0.08" stop-color="#E1C08D"/>
<stop offset="0.15" stop-color="#9D7126"/>
<stop offset="0.42" stop-color="#8C5012"/>
</linearGradient>
<linearGradient id="paint8_linear_31_10189" x1="6.56141" y1="10.0926" x2="5.84141" y2="10.7741" gradientUnits="userSpaceOnUse">
<stop stop-color="#ECA0B2"/>
<stop offset="0.32" stop-color="#CB7493"/>
<stop offset="0.53" stop-color="#73001E"/>
<stop offset="0.72" stop-color="#6C0425"/>
<stop offset="1" stop-color="#FD67B4"/>
</linearGradient>
<linearGradient id="paint9_linear_31_10189" x1="4.46141" y1="11.1558" x2="5.40856" y2="11.2115" gradientUnits="userSpaceOnUse">
<stop stop-color="#896322"/>
<stop offset="1" stop-color="#C99F4B"/>
</linearGradient>
<linearGradient id="paint10_linear_31_10189" x1="7.09717" y1="11.1301" x2="8.52431" y2="11.2672" gradientUnits="userSpaceOnUse">
<stop stop-color="#896322"/>
<stop offset="1" stop-color="#C99F4B"/>
</linearGradient>
<linearGradient id="paint11_linear_31_10189" x1="4.62431" y1="9.91282" x2="4.38431" y2="11.31" gradientUnits="userSpaceOnUse">
<stop offset="0.31" stop-color="#6B3B04"/>
<stop offset="1" stop-color="#C3942C"/>
</linearGradient>
<linearGradient id="paint12_linear_31_10189" x1="10.2343" y1="9.80566" x2="10.2343" y2="13.7142" gradientUnits="userSpaceOnUse">
<stop offset="0.09" stop-color="#7D7975"/>
<stop offset="0.26" stop-color="#BB802D"/>
<stop offset="0.43" stop-color="#CCC8C4"/>
<stop offset="0.61" stop-color="#85867B"/>
<stop offset="0.76" stop-color="#79787D"/>
<stop offset="0.93" stop-color="#A9814E"/>
</linearGradient>
<linearGradient id="paint13_linear_31_10189" x1="18.3771" y1="9.80566" x2="18.3771" y2="13.7142" gradientUnits="userSpaceOnUse">
<stop offset="0.09" stop-color="#7D7975"/>
<stop offset="0.26" stop-color="#BB802D"/>
<stop offset="0.43" stop-color="#CCC8C4"/>
<stop offset="0.61" stop-color="#85867B"/>
<stop offset="0.76" stop-color="#79787D"/>
<stop offset="0.93" stop-color="#A9814E"/>
</linearGradient>
<linearGradient id="paint14_linear_31_10189" x1="12.8571" y1="14.3231" x2="12.8571" y2="16.9631" gradientUnits="userSpaceOnUse">
<stop offset="0.54" stop-color="#281C1E"/>
<stop offset="0.66" stop-color="#70614A"/>
</linearGradient>
<linearGradient id="paint15_linear_31_10189" x1="9.64286" y1="14.5713" x2="9.64286" y2="16.7141" gradientUnits="userSpaceOnUse">
<stop stop-color="#D7922B"/>
<stop offset="0.92" stop-color="#A47316"/>
<stop offset="0.97" stop-color="#DAB15F"/>
</linearGradient>
<linearGradient id="paint16_linear_31_10189" x1="11.5714" y1="14.5713" x2="11.5714" y2="16.7141" gradientUnits="userSpaceOnUse">
<stop stop-color="#D7922B"/>
<stop offset="0.92" stop-color="#A47316"/>
<stop offset="0.97" stop-color="#DAB15F"/>
</linearGradient>
<linearGradient id="paint17_linear_31_10189" x1="13.9286" y1="14.5713" x2="13.9286" y2="16.7141" gradientUnits="userSpaceOnUse">
<stop stop-color="#D7922B"/>
<stop offset="0.92" stop-color="#A47316"/>
<stop offset="0.97" stop-color="#DAB15F"/>
</linearGradient>
<linearGradient id="paint18_linear_31_10189" x1="16.29" y1="14.5713" x2="16.29" y2="16.7141" gradientUnits="userSpaceOnUse">
<stop stop-color="#D7922B"/>
<stop offset="0.92" stop-color="#A47316"/>
<stop offset="0.97" stop-color="#DAB15F"/>
</linearGradient>
<clipPath id="clip0_31_10189">
<rect width="24" height="24" fill="white"/>
</clipPath>
</defs>
</svg>

<svg xmlns="http://www.w3.org/2000/svg" width="24" height="24" fill="none" viewBox="0 0 24 24"><g clip-path="url(#a)"><path fill="url(#b)" d="M0 0h24v24H0z"/><path fill="url(#c)" d="M12.429 13.543V9.694l.415.103.553 1.042h2.769l-.155.917a2.3 2.3 0 0 0-.99-.274c-.402 0-.758.26-.887.394v1.251l-.274.219-1.14.368z"/><path fill="url(#d)" d="m12.801 9.883-.372-.198.141-.137h1.371l.185.245v.527l.797-.772h1.148l.215.33v1.543l-.275.33-.158-.33-.283-.6-1.569-.223-1.2-.72z"/><path fill="#BCBBB9" d="M12.677 13.14V9.81l.343-.085h.733l.214.085v.626h.463l.656-.716h.771l.159.223v1.324l-.163.172c-.077-.09-.347-.279-.814-.279-.673 0-.99.416-1.072.622v1.088l-.951.437-.339-.171z"/><path fill="#C6C6C6" d="M7.329 10.946H5.1c.06.368-.116.463-.116.566.609.92-.128 1.74-.613 2.45 1.77 1.248 1.809 2.97 1.895 3.18.643-.783 1.285-2.69 1.285-3.53 0-.673-.15-2.058-.227-2.666z"/><path fill="url(#e)" d="m6.9 16.029.266-1.646c-.197-.326-.695-1.097-1.093-1.097-.399 0-1.029.488-1.29.668H4.37l-.004.009a4.41 4.41 0 0 1 1.856 2.991q.015.096.043.189c.223-.27.441-.673.638-1.114z"/><path fill="url(#f)" d="M5.22 10.946c.154.278.351.78.351 1.354 0 .707-.531 1.401-.788 1.659h-.429l.159-.227c.321-.45.617-.952.63-1.483.008-.24.004-.489-.159-.738 0-.034.017-.064.039-.102.047-.086.12-.21.073-.463h.128z"/><path fill="url(#g)" d="m7.427 11.855-.57 1.14c0 .934.039 3.098-.6 4.135l.009.013c.643-.784 1.285-2.691 1.285-3.531 0-.429-.06-1.136-.124-1.758"/><path fill="url(#h)" d="M6.227 16.984a3.46 3.46 0 0 0-1.44-3.026H4.35a4.65 4.65 0 0 1 1.873 3.005v.021z"/><path fill="url(#i)" d="M6.069 9.703a5 5 0 0 1-2.186-.086c-.146.682.338 1.432.6 1.723.073-.124.266-.373.45-.373.18 0 .381.249.458.373.06-.107.3-.317.789-.317.484 0 .75.188.823.283.107-.137.411-.416.746-.416.415 0 .681.309.822.45-.094-1.95-1.255-1.86-2.502-1.637"/><path fill="#776E5F" d="M7.131 6.857c-.222 0-.608.317-.771.471l.716.737c.214-.128.651-.428.651-.642 0-.266-.317-.566-.596-.566"/><path fill="#614108" d="m7.286 8.229-.922-.943-.63.634.129.12-.129.184h-.163v1.633c.249-.03.858-.12 1.303-.214-.047-.986.257-1.359.412-1.419z"/><path fill="url(#j)" d="m6.857 10.388-.711-.531-.575.694.725.592z"/><path fill="url(#k)" d="M5.409 11.314c.008-.244-.06-.6-.412-.6-.3 0-.463.326-.531.609l.013.017c.077-.107.27-.317.454-.317.18 0 .381.214.458.317l.018-.021z"/><path fill="url(#l)" d="M8.529 11.302c-.086-.232-.322-.588-.708-.588-.312 0-.578.279-.724.493.146-.128.386-.278.652-.278.377 0 .63.231.78.368z"/><path fill="url(#m)" d="m4.401 11.246.313-.575L3.861 10c.043.492.326.972.54 1.242z"/><path fill="url(#n)" d="M8.571 10.8v-.994l3.078.141.248 2.104-.111 1.496c-.129-.047-.6-.146-1.445-.146-.84 0-1.358.21-1.512.313l-.258-.244v-1.419c.048-.115.258-.377.733-.501.596-.154.87-.317.87-.514 0-.193-.107-.377-.625-.377-.416 0-.686.188-.772.282z"/><path fill="#EEEAE9" d="M9.429 9.429c-.532 0-.793.248-.858.373l1.942.557 1.084 2.498.193.656.21-.184v-2.975c0-.54-.561-.844-.84-.925z"/><path fill="#BCBBB9" d="M8.781 9.857v.681c.086-.06.369-.175.819-.175.57 0 .814.171.814.621 0 .446-.244.527-.814.634-.45.086-.664.322-.711.429v1.101c.02.052.085.155.145.155.433-.223 1.954-.198 2.662-.155v-2.832c0-.223-.476-.73-1.526-.73-.844 0-1.277.177-1.389.267z"/><path fill="url(#o)" d="M16.714 10.8v-.994l3.077.141.249 2.104-.111 1.496c-.13-.047-.6-.146-1.445-.146-.84 0-1.358.21-1.513.313l-.257-.244v-1.419c.047-.115.257-.377.733-.501.596-.154.87-.317.87-.514 0-.193-.107-.377-.626-.377-.415 0-.685.188-.771.282z"/><path fill="#EEEAE9" d="M17.571 9.429c-.531 0-.793.248-.857.373l1.942.557 1.084 2.498.193.656.21-.184v-2.975c0-.54-.562-.844-.84-.925z"/><path fill="#BCBBB9" d="M16.924 9.857v.681c.086-.06.369-.175.819-.175.57 0 .814.171.814.621 0 .446-.244.527-.814.634-.45.086-.664.322-.711.429v1.101c.02.052.085.155.145.155.433-.223 1.954-.198 2.662-.155v-2.832c0-.223-.476-.73-1.526-.73-.844 0-1.277.177-1.389.267z"/><path fill="url(#p)" d="m7.714 15.056.905-.913h8.477l.904.913v.973l-1.213 1.114h-7.86L7.714 16.03z"/><path fill="#2C1F18" d="M7.886 15.947v-.814l.805-.815h8.332l.806.815v.814l-1.106 1.016H8.99z"/><path fill="url(#q)" d="M9.429 14.571H9v2.143h1.286v-.428h-.857z"/><path fill="url(#r)" d="m11.331 14.571-.617 2.143h.484l.373-1.303.373 1.303h.484l-.617-2.143z"/><path fill="url(#s)" d="m13.277 14.571 1.295 1.183v-1.183H15v2.143h-.347l-1.367-1.238v1.238h-.429v-2.143z"/><path fill="url(#t)" fill-rule="evenodd" d="M16.076 14.571h-.647v2.143h.647a1.071 1.071 0 1 0 0-2.143M16.07 15h-.214v1.286h.214a.643.643 0 0 0 0-1.286" clip-rule="evenodd"/></g><defs><linearGradient id="b" x1="12" x2="12" y1="0" y2="24" gradientUnits="userSpaceOnUse"><stop stop-color="#181422"/><stop offset=".25" stop-color="#3C3E4D"/><stop offset=".72" stop-color="#424147"/><stop offset="1" stop-color="#1A0C19"/></linearGradient><linearGradient id="c" x1="15.883" x2="12.459" y1="11.996" y2="11.996" gradientUnits="userSpaceOnUse"><stop offset=".42" stop-color="#AF764B"/><stop offset=".56" stop-color="#F7F4EF"/><stop offset=".64" stop-color="#AF7239"/><stop offset=".89" stop-color="#896D57"/><stop offset="1" stop-color="#7A7975"/></linearGradient><linearGradient id="d" x1="16.286" x2="12.429" y1="10.658" y2="10.658" gradientUnits="userSpaceOnUse"><stop offset=".27" stop-color="#F3F3F3"/><stop offset=".42" stop-color="#88857C"/><stop offset=".67" stop-color="#CECAC7"/></linearGradient><linearGradient id="e" x1="5.769" x2="5.769" y1="13.418" y2="17.143" gradientUnits="userSpaceOnUse"><stop stop-color="#BFBFBF"/><stop offset="1" stop-color="#B9B1AB"/></linearGradient><linearGradient id="f" x1="4.963" x2="4.963" y1="10.946" y2="13.959" gradientUnits="userSpaceOnUse"><stop stop-color="#7C8280"/><stop offset="1" stop-color="#A4A5A7"/></linearGradient><linearGradient id="g" x1="6.909" x2="6.909" y1="11.854" y2="17.143" gradientUnits="userSpaceOnUse"><stop stop-color="#E8E8ED"/><stop offset="1" stop-color="#F3F5EA"/></linearGradient><linearGradient id="h" x1="5.306" x2="5.306" y1="14.023" y2="16.984" gradientUnits="userSpaceOnUse"><stop stop-color="#7F7366"/><stop offset="1" stop-color="#C2A963"/></linearGradient><linearGradient id="i" x1="6.099" x2="6.21" y1="9.592" y2="11.34" gradientUnits="userSpaceOnUse"><stop offset=".08" stop-color="#E1C08D"/><stop offset=".15" stop-color="#9D7126"/><stop offset=".42" stop-color="#8C5012"/></linearGradient><linearGradient id="j" x1="6.561" x2="5.841" y1="10.093" y2="10.774" gradientUnits="userSpaceOnUse"><stop stop-color="#ECA0B2"/><stop offset=".32" stop-color="#CB7493"/><stop offset=".53" stop-color="#73001E"/><stop offset=".72" stop-color="#6C0425"/><stop offset="1" stop-color="#FD67B4"/></linearGradient><linearGradient id="k" x1="4.461" x2="5.409" y1="11.156" y2="11.211" gradientUnits="userSpaceOnUse"><stop stop-color="#896322"/><stop offset="1" stop-color="#C99F4B"/></linearGradient><linearGradient id="l" x1="7.097" x2="8.524" y1="11.13" y2="11.267" gradientUnits="userSpaceOnUse"><stop stop-color="#896322"/><stop offset="1" stop-color="#C99F4B"/></linearGradient><linearGradient id="m" x1="4.624" x2="4.384" y1="9.913" y2="11.31" gradientUnits="userSpaceOnUse"><stop offset=".31" stop-color="#6B3B04"/><stop offset="1" stop-color="#C3942C"/></linearGradient><linearGradient id="n" x1="10.234" x2="10.234" y1="9.806" y2="13.714" gradientUnits="userSpaceOnUse"><stop offset=".09" stop-color="#7D7975"/><stop offset=".26" stop-color="#BB802D"/><stop offset=".43" stop-color="#CCC8C4"/><stop offset=".61" stop-color="#85867B"/><stop offset=".76" stop-color="#79787D"/><stop offset=".93" stop-color="#A9814E"/></linearGradient><linearGradient id="o" x1="18.377" x2="18.377" y1="9.806" y2="13.714" gradientUnits="userSpaceOnUse"><stop offset=".09" stop-color="#7D7975"/><stop offset=".26" stop-color="#BB802D"/><stop offset=".43" stop-color="#CCC8C4"/><stop offset=".61" stop-color="#85867B"/><stop offset=".76" stop-color="#79787D"/><stop offset=".93" stop-color="#A9814E"/></linearGradient><linearGradient id="p" x1="12.857" x2="12.857" y1="14.323" y2="16.963" gradientUnits="userSpaceOnUse"><stop offset=".54" stop-color="#281C1E"/><stop offset=".66" stop-color="#70614A"/></linearGradient><linearGradient id="q" x1="9.643" x2="9.643" y1="14.571" y2="16.714" gradientUnits="userSpaceOnUse"><stop stop-color="#D7922B"/><stop offset=".92" stop-color="#A47316"/><stop offset=".97" stop-color="#DAB15F"/></linearGradient><linearGradient id="r" x1="11.571" x2="11.571" y1="14.571" y2="16.714" gradientUnits="userSpaceOnUse"><stop stop-color="#D7922B"/><stop offset=".92" stop-color="#A47316"/><stop offset=".97" stop-color="#DAB15F"/></linearGradient><linearGradient id="s" x1="13.929" x2="13.929" y1="14.571" y2="16.714" gradientUnits="userSpaceOnUse"><stop stop-color="#D7922B"/><stop offset=".92" stop-color="#A47316"/><stop offset=".97" stop-color="#DAB15F"/></linearGradient><linearGradient id="t" x1="16.29" x2="16.29" y1="14.571" y2="16.714" gradientUnits="userSpaceOnUse"><stop stop-color="#D7922B"/><stop offset=".92" stop-color="#A47316"/><stop offset=".97" stop-color="#DAB15F"/></linearGradient><clipPath id="a"><path fill="#fff" d="M0 0h24v24H0z"/></clipPath></defs></svg>
